packages/icons/src/line-three.svg

<svg xmlns="http://www.w3.org/2000/svg" width="24" height="24" fill="none" viewBox="0 0 24 24">
  <path fill="#000" fill-rule="evenodd" d="M4 18h16v-2H4v2Zm0-5h16v-2H4v2Zm0-7v2h16V6H4Z" clip-rule="evenodd"/>
</svg>

<svg width="24" height="24" viewBox="0 0 24 24" fill="none" xmlns="http://www.w3.org/2000/svg">
<path fill-rule="evenodd" clip-rule="evenodd" d="M4 18H20V16H4V18ZM4 13H20V11H4V13ZM4 6V8H20V6H4Z" fill="black"/>
</svg>
